X: 17446
T: Highlander's Farewell To Ireland, The
R: strathspey
M: 4/4
K: Adorian
A,2 A,>B,B,A,A,>|FG>ED<B, G,> G, <G|
E>DE<G A>BA>G|E<GD<B, B,A, A, G,|
A,2 A,>B,B,A,A,>|FG>ED<B, G,> G, <G|
E>DE<G A>BA>G|E<GD<B, B,A, A, G,|
E|A>AG>BA>A> F|G>AG>E D/C/B,/A,/ G,>G|
E>DE<G A>BA>G|E<GD<B,{B,} A,2 A,|
E|A>AG>BA>A> F|G>AG>E D/C/B,/A,/ G,>G|
E>DE<G A>BA>G|E<GD<B,{B,} A,2 A,|
B|A2 A>B A2 A>f|g>ed<B G2 e<g|
e>de<g a>ba>g|e<gd<B B AA|
A2 A>B A2 A>f|g>ed<B G2 e<g|
e>de<g a>ba>g|e<gd<B B AA|
a>ag>b aa>f|g>ag>e d/c/B/A/ G>g|
e>de<g a>ba>g|e<gd<B A2 A|
a>ag>b aa>f|g>ag>e d/c/B/A/ G>g|
e>de<g a>ba>g|e<gd<B A2 A|
|:D|E>A, A,/A,/A, E>DE<G|B,>G, G,/G,/G, B,>A,B,<D|
E>A, A,/A,/A, E<DE<A|G<ED<B, A,2 z:|
z|e<aa>g a>ba>e|g<be<g d>gB<G|e<aa>g a>ba>e|d<eg>B A/A/A A>B|
e<aa>g a>ba>e|g<be<g d>gB<G|c<Ad>B e<Ag>e|a>eg<B A2 A|
|:d|e>A A/A/A e>de<g|B>G G/G/G B>AB<d|
e>A A/A/A e<de<a|g<ed<B A2z:|
z|e<aa>g a>ba>e|g<be<g d>gB<G|e<aa>g a>ba>e|d<eg>B A/A/A A>B|
e<aa>g a>ba>e|g<be<g d>gB<G|c<Ad>B e<Ag>e|a>eg<B A2 A||

